glot_web/static/assets/language/clojure.svg

<svg xmlns="http://www.w3.org/2000/svg" width="200pt" height="264" viewBox="0 0 100 99"><circle cx="49.75" cy="49.5" r="48.5" fill="#fff"/><path fill="#5881d8" d="M39.3 6.22c12.41-3.11 26.15-.58 36.53 6.94 12.85 8.94 20.29 25.06 18.6 40.64-.77 6.31-5.03 12.21-11.06 14.44-4.16 1.73-8.73 1.54-13.14 1.56 10.54-10.13 11.18-28.47 1.22-39.2-7.85-9.28-21.7-12.08-32.8-7.44-7.38-4.36-16.82-4.48-24.38-.47 6.38-7.9 15.05-14.13 25.03-16.47"/><path fill="#90b4fe" d="M42.93 26.99c5.56-1.49 11.62-1.37 16.86 1.15 8.92 4.05 14.82 14 13.62 23.8-.56 6.7-4.49 12.59-9.6 16.75-4.24-1.98-6.28-6.39-8.15-10.39-4.9-10.18-5.43-22.28-12.73-31.31"/><path fill="#63b132" d="M12.3 33.3c4.81-4.81 12.03-6.4 18.61-5.24-5.69 5.43-9.47 12.97-9.45 20.93-.35 9.98 5.12 19.77 13.62 24.93 8.2 5.14 18.87 5.36 27.58 1.37 7.71 2.28 15.86 2.07 23.65.28C80.05 84 70.94 90.35 60.69 92.84c-12.67 3.19-26.69.4-37.13-7.47C12.16 77.09 5.12 63.11 5.44 49c-.29-5.94 2.78-11.58 6.86-15.7"/><path fill="#91dc47" d="M26.94 54c-1.97-8.94 2.26-18.41 9.51-23.76 5.54 3.47 7.78 9.9 10.1 15.67C43 53.4 38.44 60.46 35.94 68.42c-4.44-3.68-7.98-8.65-9-14.42M41.97 71.8c-.51-7.53 3.34-14.28 6.14-21 2.29 7.33 3.73 15.39 9.07 21.26-5.01 1.31-10.25 1.2-15.21-.26"/></svg>

<?xml version="1.0" encoding="UTF-8" ?>
<!DOCTYPE svg PUBLIC "-//W3C//DTD SVG 1.1//EN" "http://www.w3.org/Graphics/SVG/1.1/DTD/svg11.dtd">
<svg width="200pt" height="198pt" viewBox="0 0 100 99" version="1.1" xmlns="http://www.w3.org/2000/svg">
<circle fill="#ffffff" cx="49.75" cy="49.5" r="48.5"/>
<path fill="#5881d8" d=" M 39.30 6.22 C 51.71 3.11 65.45 5.64 75.83 13.16 C 88.68 22.10 96.12 38.22 94.43 53.80 C 93.66 60.11 89.40 66.01 83.37 68.24 C 79.21 69.97 74.64 69.78 70.23 69.80 C 80.77 59.67 81.41 41.33 71.45 30.60 C 63.60 21.32 49.75 18.52 38.65 23.16 C 31.27 18.80 21.83 18.68 14.27 22.69 C 20.65 14.79 29.32 8.56 39.30 6.22 Z" />
<path fill="#90b4fe" d=" M 42.93 26.99 C 48.49 25.50 54.55 25.62 59.79 28.14 C 68.71 32.19 74.61 42.14 73.41 51.94 C 72.85 58.64 68.92 64.53 63.81 68.69 C 59.57 66.71 57.53 62.30 55.66 58.30 C 50.76 48.12 50.23 36.02 42.93 26.99 Z" />
<path fill="#63b132" d=" M 12.30 33.30 C 17.11 28.49 24.33 26.90 30.91 28.06 C 25.22 33.49 21.44 41.03 21.46 48.99 C 21.11 58.97 26.58 68.76 35.08 73.92 C 43.28 79.06 53.95 79.28 62.66 75.29 C 70.37 77.57 78.52 77.36 86.31 75.57 C 80.05 84.00 70.94 90.35 60.69 92.84 C 48.02 96.03 34.00 93.24 23.56 85.37 C 12.16 77.09 5.12 63.11 5.44 49.00 C 5.15 43.06 8.22 37.42 12.30 33.30 Z" />
<path fill="#91dc47" d=" M 26.94 54.00 C 24.97 45.06 29.20 35.59 36.45 30.24 C 41.99 33.71 44.23 40.14 46.55 45.91 C 43.00 53.40 38.44 60.46 35.94 68.42 C 31.50 64.74 27.96 59.77 26.94 54.00 Z" />
<path fill="#91dc47" d=" M 41.97 71.80 C 41.46 64.27 45.31 57.52 48.11 50.80 C 50.40 58.13 51.84 66.19 57.18 72.06 C 52.17 73.37 46.93 73.26 41.97 71.80 Z" />
</svg>
